X:295
T:Come hast to the Wedding
A:Wyresdale, Lancashire
B:E and J Winder, 1835-41
L:1/8
M:6/8
O:England
Z:Richard Robinson 
%%TUNEURL: http://www.leeds.ac.uk/music/Info/RRTuneBk/gettune/00000eb3.html
%%ID:00000eb3
K:C
G |\
GEG Gge | dcd ecA | GEG AcE | DDD D2G |\
GEG Gge | dcd ecA | GEF ege | ccc c2 ::
g |\
(ge)g (ge)g | (af)a (af)a | (ge)g gfe | ddd d2e/f/ |\
g3 e3 | dcd ecA | GEG ege | cccc2 :|
